X: 692
T: Zhengzhu daojuanlian
%%abc-version 2.0
%%abcx-abcm2ps-target-version 5.9.1 (29 Sep 2008)
%%abc-creator hum2abc beta
%%abcx-conversion-date 2013/10/02 07:52:30
%%abc-edited-by Helmut Schaffrath
%%humdrum-veritas 2028857866
%%humdrum-veritas-data 1103885193
%%continueall 1
%%barnumbers 0
L: 1/8
M: 2/4
K: A
B B c A [I:setbarnb 1]| 
B4 | 
c> B A B | 
A FE2 | 
A A B A | 
FA2C | 
B,4 | 
F> F F F | 
A C E F | 
A A B A | 
FA2C | 
B,4 |]  



